assets/flag/svg/united-nations.svg

<svg id="Layer_1" xmlns="http://www.w3.org/2000/svg" viewBox="0 0 512 512"><circle cx="256" cy="256" r="256" fill="#338af3"/><path d="M255.26 166.957c-49.179 0-89.043 39.866-89.043 89.043s39.865 89.043 89.043 89.043c49.176 0 89.043-39.866 89.043-89.043s-39.868-89.043-89.043-89.043zM232.999 256c0-12.294 9.966-22.261 22.261-22.261 12.294 0 22.261 9.967 22.261 22.261 0 12.295-9.967 22.261-22.261 22.261-12.295 0-22.261-9.966-22.261-22.261zm45.341-38.079a44.253 44.253 0 0 0-11.209-4.83v-22.8a66.403 66.403 0 0 1 27.245 11.595l-16.036 16.035zm-33.469-5.211a44.227 44.227 0 0 0-11.749 4.669l-16.11-16.11a66.424 66.424 0 0 1 27.859-11.244v22.685zm-11.75 81.911a44.224 44.224 0 0 0 11.749 4.668v22.684c-10.248-1.601-19.714-5.542-27.858-11.244l16.109-16.108zm34.011 4.288a44.229 44.229 0 0 0 11.208-4.829l16.035 16.035a66.412 66.412 0 0 1-27.244 11.595v-22.8h.001zm26.748-20.769a44.233 44.233 0 0 0 4.499-11.009h22.722a66.38 66.38 0 0 1-11.11 27.117L293.88 278.14zm4.499-33.27a44.226 44.226 0 0 0-4.499-11.008l16.11-16.11a66.372 66.372 0 0 1 11.11 27.117h-22.722v.001zm-97.234-27.985l16.035 16.035a44.283 44.283 0 0 0-5.04 11.95h-22.722a66.404 66.404 0 0 1 11.727-27.985zm-11.727 50.245h22.722a44.22 44.22 0 0 0 5.04 11.95l-16.035 16.035a66.4 66.4 0 0 1-11.727-27.985z" fill="#f0f0f0"/><path d="M399.955 256c0-39.58-15.898-75.441-41.648-101.565l-23.611 23.611c19.708 20.08 31.868 47.596 31.868 77.954 0 61.472-49.833 111.304-111.304 111.304-61.473 0-111.304-49.832-111.304-111.304 0-30.737 12.457-58.563 32.6-78.704l-23.611-23.611c-26.185 26.185-42.38 62.359-42.38 102.315 0 66.215 44.477 122.042 105.186 139.235-6.656 12.644-5.642 28.563 3.866 40.428 12.488-10.008 25.417-20.37 36.385-29.158l36.385 29.158c9.602-11.983 10.547-28.104 3.67-40.809C356.102 377.239 399.955 321.745 399.955 256z" fill="#f0f0f0"/><g/><g/><g/><g/><g/><g/><g/><g/><g/><g/><g/><g/><g/><g/><g/></svg>

<?xml version="1.0" encoding="iso-8859-1"?>
<!-- Generator: Adobe Illustrator 19.0.0, SVG Export Plug-In . SVG Version: 6.00 Build 0)  -->
<svg version="1.1" id="Layer_1" xmlns="http://www.w3.org/2000/svg" xmlns:xlink="http://www.w3.org/1999/xlink" x="0px" y="0px"
	 viewBox="0 0 512 512" style="enable-background:new 0 0 512 512;" xml:space="preserve">
<circle style="fill:#338AF3;" cx="256" cy="256" r="256"/>
<g>
	<path style="fill:#F0F0F0;" d="M255.26,166.957c-49.179,0-89.043,39.866-89.043,89.043s39.865,89.043,89.043,89.043
		c49.176,0,89.043-39.866,89.043-89.043S304.435,166.957,255.26,166.957z M232.999,256c0-12.294,9.966-22.261,22.261-22.261
		c12.294,0,22.261,9.967,22.261,22.261c0,12.295-9.967,22.261-22.261,22.261C242.965,278.261,232.999,268.295,232.999,256z
		 M278.34,217.921c-3.455-2.099-7.221-3.729-11.209-4.83v-22.8c10.041,1.802,19.299,5.841,27.245,11.595L278.34,217.921z
		 M244.871,212.71c-4.177,0.999-8.123,2.586-11.749,4.669l-16.11-16.11c8.144-5.702,17.612-9.641,27.859-11.244V212.71z
		 M233.121,294.621c3.626,2.082,7.572,3.67,11.749,4.668v22.684c-10.248-1.601-19.714-5.542-27.858-11.244L233.121,294.621z
		 M267.132,298.909c3.987-1.101,7.755-2.73,11.208-4.829l16.035,16.035c-7.946,5.753-17.203,9.793-27.244,11.595v-22.8H267.132z
		 M293.88,278.14c1.961-3.413,3.494-7.105,4.499-11.009h22.722c-1.672,9.962-5.546,19.171-11.11,27.117L293.88,278.14z
		 M298.379,244.87c-1.005-3.905-2.538-7.594-4.499-11.008l16.11-16.11c5.564,7.947,9.439,17.155,11.11,27.117h-22.722V244.87z
		 M201.145,216.885l16.035,16.035c-2.229,3.67-3.942,7.686-5.04,11.95h-22.722C191.151,234.544,195.25,225.026,201.145,216.885z
		 M189.418,267.13h22.722c1.097,4.264,2.81,8.28,5.04,11.95l-16.035,16.035C195.25,286.974,191.151,277.457,189.418,267.13z"/>
	<path style="fill:#F0F0F0;" d="M399.955,256c0-39.58-15.898-75.441-41.648-101.565l-23.611,23.611
		c19.708,20.08,31.868,47.596,31.868,77.954c0,61.472-49.833,111.304-111.304,111.304c-61.473,0-111.304-49.832-111.304-111.304
		c0-30.737,12.457-58.563,32.6-78.704l-23.611-23.611c-26.185,26.185-42.38,62.359-42.38,102.315
		c0,66.215,44.477,122.042,105.186,139.235c-6.656,12.644-5.642,28.563,3.866,40.428c12.488-10.008,25.417-20.37,36.385-29.158
		c10.968,8.789,23.898,19.15,36.385,29.158c9.602-11.983,10.547-28.104,3.67-40.809C356.102,377.239,399.955,321.745,399.955,256z"
		/>
</g>
<g>
</g>
<g>
</g>
<g>
</g>
<g>
</g>
<g>
</g>
<g>
</g>
<g>
</g>
<g>
</g>
<g>
</g>
<g>
</g>
<g>
</g>
<g>
</g>
<g>
</g>
<g>
</g>
<g>
</g>
</svg>
